X:820
T: Breeze Across the Lake
C: BB
N: Second tune of "Sandy's Jig Set"
L: 1/8
M: 6/8
R: jig
Q: 1/8=320
K: G
D | "G"G2B d^cd | "Em"edB "G"d2B | "F"cBA =FEF | "Dm"D=FA "F"cBA |
"G"G2B d^cd | "Em"edB "D"def | "G"gdB "D7"ABc | "G"BGF G2 :|
e|"G"gfg dcB | "G"gfg dcB | "F"=fef cBA | "F"=fef cBA |
"G"gfg dcB | "G"GBd "F"=fef | "G"gdB "D7"ABc |"G"BGF G2 :|
